X:1
T:Candlemas Eve
M:4/4
C:
S:Robert Hill/Ruth Temple
N:as used for The Three Musketeers
A:Seabright
O:English
R:Reel
%P:A.(AB$^2$)$^5$
P:A.(AB2)5
K:G
I:speed 400
P:A
D2 | G2 B2 B2 GF | E2 F2 G2 Bd | c2 B2 A2 G2 | A6 \
Bc | d2 BA G2 AB | cB AG F2 GA | BA GF E2 F2 | G6 ||\
P:B
Bc | d3  d d2 cB | e2 c2 A2 Bd | c2 B2 A2 G2 | d6 \
d2 | e3  d c2 B2 | A2 G2 F2 GA | BA GF E2 F2 | G6 ||
